X:1
T:Essex, 77.77
T:Essex, 77.77
T:Thomas Clark, 1805
T:Public Domain Courtesy of the Cyber Hymnal™
C:Thomas Clark, 1805
Z:Public Domain
Z:Courtesy of the Cyber Hymnal™
%%score ( 1 2 ) ( 3 4 )
L:1/8
Q:1/4=110
M:4/4
K:C
V:1 treble 
V:2 treble 
V:3 bass 
V:4 bass 
V:1
 [Ec]3 [FA] [EG]2 [CE]2 | [B,D]2 [B,G]2 [DF]2 [CE]2 | [EG]3 G [FA]2 [FB]2 | %3
 [Gc]2 [Fd]2 [Ec]2 [DB]2 | [Ec]3 [GB] [FA]2 [CG]2 | [B,F]2 [CE]2 [CE]2 [B,D]2 | C3 D E2 C2 | %7
 G2 G2 [Cc]4 | [Ge]3 [Gd] [Gc]2 [Fd]2 | [Ec]4 [DB]4 | [Ec]8 |] %11
V:2
 x8 | x8 | x3 G x4 | x8 | x8 | x8 | C3 D E2 C2 | G2 G2 x4 | x8 | x8 | x8 |] %11
V:3
 [C,G,]3 [C,C] [C,C]2 [C,G,]2 | [G,,G,]2 [G,,G,]2 [C,G,]4 | [C,C]3 [E,C] [F,C]2 [D,G,]2 | %3
 [E,G,]2 [F,A,]2 G,4 | [C,G,]3 [C,C] [F,C]2 [F,C]2 | [D,G,]2 [C,G,]2 [G,,G,]4 | C,3 D, E,2 C,2 | %7
 G,2 G,2 [C,C]4 | [C,C]3 [D,B,] [E,C]2 [F,A,]2 | G,4 [G,,G,]4 | [C,G,]8 |] %11
V:4
 x8 | x8 | x8 | x4 G,4 | x8 | x8 | C,3 D, E,2 C,2 | G,2 G,2 x4 | x8 | G,4 x4 | x8 |] %11

